packages/dnb-eufemia/assets/icons/bankid_qr.svg

<svg width="16" height="16" viewBox="0 0 16 16" fill="none" xmlns="http://www.w3.org/2000/svg">
<path d="M1 8.77778H7.22222V10.3333M10.3333 10.3333V15H15V10.3333H13.4444M7.22222 13.4444V15M7.22222 1V5.66667H8.77778M11.8889 7.22222H15M1 1H4.11111V4.11111H1V1ZM1 11.8889H4.11111V15H1V11.8889ZM11.8889 1H15V4.11111H11.8889V1Z" stroke="black" stroke-width="1.5" stroke-linecap="round" stroke-linejoin="round"/>
</svg>

<svg width="16" height="16" viewBox="0 0 16 16" fill="none" xmlns="http://www.w3.org/2000/svg"><path d="M1 8.778h6.222v1.555m3.111 0V15H15v-4.667h-1.556m-6.222 3.111V15m0-14v4.667h1.556m3.11 1.555H15M1 1h3.111v3.111H1V1Zm0 10.889h3.111V15H1v-3.111ZM11.889 1H15v3.111h-3.111V1Z" stroke="#000" stroke-width="1.5" stroke-linecap="round" stroke-linejoin="round"/></svg>
